svg/regular/bx-window-close.svg

<svg xmlns="http://www.w3.org/2000/svg" width="24" height="24"><path d="M20 3H4c-1.103 0-2 .897-2 2v14c0 1.103.897 2 2 2h16c1.103 0 2-.897 2-2V5c0-1.103-.897-2-2-2zM4 19V7h16l.001 12H4z"/><path d="m15.707 10.707-1.414-1.414L12 11.586 9.707 9.293l-1.414 1.414L10.586 13l-2.293 2.293 1.414 1.414L12 14.414l2.293 2.293 1.414-1.414L13.414 13z"/></svg>

<svg xmlns="http://www.w3.org/2000/svg" width="24" height="24" viewBox="0 0 24 24"><path d="M20,3H4C2.897,3,2,3.897,2,5v14c0,1.103,0.897,2,2,2h16c1.103,0,2-0.897,2-2V5C22,3.897,21.103,3,20,3z M4,19V7h16 l0.001,12H4z"/><path d="M15.707 10.707L14.293 9.293 12 11.586 9.707 9.293 8.293 10.707 10.586 13 8.293 15.293 9.707 16.707 12 14.414 14.293 16.707 15.707 15.293 13.414 13z"/></svg>
